X:218
T:Put Yer Shoulder Next To Mine And Pump Away
M:C|
L:1/4
Q:1/4=150
K:Ab
E|\
A>A A>A|A2  G>G|F2  D>D|D3 D |
B>B B>B|B2  A>A|G2  E>E|E2 E2|
d>d d>d|f2  f2 |e>e e>c|e2 c>d|
e>e e>c|e>d B>G|A>B c>d|e2 c>d|
e>e e>c|e>d c>B|A3 ||
